apps/trade/public/tokens/usdc.svg

<svg width="24" height="24" viewBox="0 0 24 24" fill="none" xmlns="http://www.w3.org/2000/svg">
<g clip-path="url(#clip0_3476_94627)">
<path d="M12 24C18.65 24 24 18.65 24 12C24 5.34996 18.65 0 12 0C5.34996 0 0 5.34996 0 12C0 18.65 5.34996 24 12 24Z" fill="#2775CA"/>
<path d="M15.3 13.9C15.3 12.15 14.25 11.55 12.15 11.3C10.65 11.1 10.35 10.7 10.35 9.99996C10.35 9.29988 10.85 8.85 11.85 8.85C12.75 8.85 13.25 9.15 13.5 9.9C13.55 10.05 13.7 10.15 13.85 10.15H14.65C14.85 10.15 15 9.99996 15 9.80004V9.75C14.8 8.64996 13.9 7.8 12.75 7.70004V6.50004C12.75 6.3 12.6 6.15 12.35 6.09996H11.6C11.4 6.09996 11.25 6.24996 11.2 6.50004V7.65C9.69996 7.85004 8.75004 8.85 8.75004 10.1C8.75004 11.75 9.75 12.4 11.85 12.65C13.25 12.9 13.7 13.2 13.7 14C13.7 14.8001 13 15.35 12.05 15.35C10.75 15.35 10.3 14.8 10.15 14.05C10.1 13.85 9.95004 13.75 9.80004 13.75H8.94996C8.75004 13.75 8.60004 13.9 8.60004 14.1V14.15C8.79996 15.4 9.6 16.3 11.25 16.55V17.75C11.25 17.95 11.4 18.1 11.65 18.15H12.4C12.6 18.15 12.75 18 12.8 17.75V16.55C14.3 16.3 15.3 15.25 15.3 13.9Z" fill="white"/>
<path d="M9.45 19.15C5.55 17.75 3.54996 13.4 5.00004 9.54996C5.75004 7.44996 7.40004 5.85 9.45 5.1C9.65004 5.00004 9.75 4.85004 9.75 4.59996V3.9C9.75 3.69996 9.65004 3.54996 9.45 3.50004C9.39996 3.50004 9.3 3.50004 9.24996 3.54996C4.5 5.04996 1.89996 10.1 3.39996 14.85C4.29996 17.65 6.45 19.8 9.24996 20.7C9.45 20.8 9.65004 20.7 9.69996 20.5C9.75 20.45 9.75 20.4 9.75 20.3V19.6C9.75 19.45 9.6 19.25 9.45 19.15ZM14.75 3.54996C14.55 3.45 14.35 3.54996 14.3 3.75C14.25 3.80004 14.25 3.84996 14.25 3.95004V4.65C14.25 4.85004 14.4 5.04996 14.55 5.15004C18.45 6.54996 20.45 10.9 19 14.75C18.25 16.85 16.6 18.45 14.55 19.2C14.35 19.3 14.25 19.45 14.25 19.7V20.4C14.25 20.6 14.35 20.75 14.55 20.8C14.6 20.8 14.7 20.8 14.75 20.75C19.5 19.25 22.1 14.2 20.6 9.45C19.7 6.6 17.5 4.44996 14.75 3.54996Z" fill="white"/>
</g>
<defs>
<clipPath id="clip0_3476_94627">
<rect width="24" height="24" fill="white"/>
</clipPath>
</defs>
</svg>

<svg width="24" height="24" fill="none" xmlns="http://www.w3.org/2000/svg">
    <g clip-path="url(#a)">
        <path d="M12 24c6.65 0 12-5.35 12-12S18.65 0 12 0 0 5.35 0 12s5.35 12 12 12Z" fill="#2775CA"/>
        <path d="M15.3 13.9c0-1.75-1.05-2.35-3.15-2.6-1.5-.2-1.8-.6-1.8-1.3 0-.7.5-1.15 1.5-1.15.9 0 1.4.3 1.65 1.05.05.15.2.25.35.25h.8c.2 0 .35-.15.35-.35v-.05c-.2-1.1-1.1-1.95-2.25-2.05V6.5c0-.2-.15-.35-.4-.4h-.75c-.2 0-.35.15-.4.4v1.15c-1.5.2-2.45 1.2-2.45 2.45 0 1.65 1 2.3 3.1 2.55 1.4.25 1.85.55 1.85 1.35s-.7 1.35-1.65 1.35c-1.3 0-1.75-.55-1.9-1.3-.05-.2-.2-.3-.35-.3h-.85c-.2 0-.35.15-.35.35v.05c.2 1.25 1 2.15 2.65 2.4v1.2c0 .2.15.35.4.4h.75c.2 0 .35-.15.4-.4v-1.2c1.5-.25 2.5-1.3 2.5-2.65Z" fill="#fff"/>
        <path d="M9.45 19.15c-3.9-1.4-5.9-5.75-4.45-9.6.75-2.1 2.4-3.7 4.45-4.45.2-.1.3-.25.3-.5v-.7c0-.2-.1-.35-.3-.4-.05 0-.15 0-.2.05C4.5 5.05 1.9 10.1 3.4 14.85c.9 2.8 3.05 4.95 5.85 5.85.2.1.4 0 .45-.2.05-.05.05-.1.05-.2v-.7c0-.15-.15-.35-.3-.45Zm5.3-15.6c-.2-.1-.4 0-.45.2-.05.05-.05.1-.05.2v.7c0 .2.15.4.3.5 3.9 1.4 5.9 5.75 4.45 9.6-.75 2.1-2.4 3.7-4.45 4.45-.2.1-.3.25-.3.5v.7c0 .2.1.35.3.4.05 0 .15 0 .2-.05 4.75-1.5 7.35-6.55 5.85-11.3-.9-2.85-3.1-5-5.85-5.9Z" fill="#fff"/>
    </g>
    <defs>
        <clipPath id="a">
            <path fill="#fff" d="M0 0h24v24H0z"/>
        </clipPath>
    </defs>
</svg>
